!!!OTL: STEHE FEST O VATERLAND
!!!ARE: Europa, Mitteleuropa, Deutschland
!!!SCT: B0009
!!!YEM: Copyright 1995, estate of Helmut Schaffrath.
**kern
*ICvox
*Ivox
*M4/4
*k[f#c#]
*D:
=1
{4d
4d
4.g
8f#
=2
4e
4a
4f#
4r}
=3
{4dd
4a
4.b
8a
=4
4.a
8g
2f#}
=5
{4e
4a
4b
4cc#
=6
2b
4a
4r}
=7
{4ee
8dd
8cc#
4dd
4a
=8
4dd
4ff#
2ee}
=9
{4dd
4dd
4cc#
4cc#
=10
4dd
4dd
2ee}
=11
{4ff#
4dd
4b
4g
=12
2f#
2e
=13
2d
2r}
==
!!!AGN: politisch, national, Vaterlands - Lied
!!!ONB: ESAC (Essen Associative Code) Database: BOEHME
!!!AMT: simple quadruple
!!!AIN: vox
!!!EED: Helmut Schaffrath
!!!EEV: 1.0
*-
